X:37
T:Lo! He Comes With Clouds Descending
%%stretchlast false
M:4/4
L:1/4
K:F clef=C1
"^I"[F,A,CF]2 [F,A,CA] "^V¹"[E,G,Cc] | "^vi"[D,F,A,F] "^iii"[A,,A,CE] "^IV"[B,,F,B,D]/ "^ii¹"[B,,G,B,D]/ "^I"[F,,A,C] | "^IV"[B,,F,B,D]3/2 "^V"[B,,F,CE]/ "^IV"[B,,F,DF] "^V"[B,,F,CE]/ "^IV"[B,,F,B,D]/ | "^V"[C,E,G,C]3/2 "^V7"[C,E,G,B,]/ "^I"[F,,F,A,]2 | "^V"[C,E,G,C] "^vi"[D,F,G,C] "^V"[C,E,G,C] "^V7³"[B,,E,C] | "^I¹"[A,,F,CF]2 "^ii"[G,,B,DG] [G,,B,EG] | "^I"[F,,A,FA] [F,,A,Ac] "^ii¹"[B,,DGB] "^IVmaj7"[B,,DFA] | "^I²"[C,CFA]2 "^V"[C,CEG]2 | "^I"[F,A,CF]2 [F,A,CA] "^V¹"[E,G,Cc] | "^vi"[D,F,A,F] "^iii"[A,,A,CE] "^IV"[B,,F,B,D]/ "^ii¹"[B,,G,B,D]/ "^I"[F,,A,C] | "^IV"[B,,F,B,D]3/2 "^V"[B,,F,CE]/ "^IV"[B,,F,DF] "^V"[B,,F,CE]/ "^IV"[B,,F,B,D]/ | "^V"[C,E,G,C]3/2 "^V7"[C,E,G,B,]/ "^I"[F,,F,A,]2 | "^V"[C,E,G,C] "^vi"[D,F,G,C] "^V"[C,E,G,C] "^V7³"[B,,E,C] | "^I¹"[A,,F,CF]2 "^ii"[G,,B,DG] [G,,B,EG] | "^I"[F,,A,FA] [F,,A,Ac] "^ii¹"[B,,DGB] "^IVmaj7"[B,,DFA] | "^I²"[C,CFA]2 "^V"[C,CEG]2 | [C,CEG]3/2 "^I²"[C,CFA]/ "^V"[C,CEG] "^I¹"[A,,CFA] | "^ii"[G,,B,DB] [G,,B,EB] "^I"[F,,CFA]2 | [F,A,CF]3/2 "^V¹"[E,G,CG]/ "^vi¹"[F,A,DF] "^ii"[G,,B,DB] | "^I¹"[A,,CFA]/ "^I"[B,,CFA]/ "^V"[C,CEG]/ "^V7"[C,B,EG]/ "^vi"[D,A,DF]2 | [D,F,DA]3/2 "^ii²"[D,G,DB]/ "^vi"[D,F,DA] "^I¹"[A,,F,Cc] | "^vii°¹"[G,,G,EB] "^I"[F,,A,FA]/ [F,,B,FA]/ "^i"[C,CFG] "^V"[C,CEG] | "^I¹"[A,CF]2 "^v7²"[G,B,CG] "^I"[F,A,CA] | "^V¹"[E,G,C]2 "^IV¹"[D,F,FB] "^ii7²"[D,G,FB] | "^I²"[C,A,FA] [C,B,FA] "^V"[C,CEG] "^V7"[C,B,EG] | "^I"[F,,A,F]4 |]
